teeny/outline/nextjs.svg

<svg width="15" height="15" viewBox="0 0 15 15" fill="none" xmlns="http://www.w3.org/2000/svg">
<path d="M4.5 4.5L4.90534 4.20725C4.77836 4.03144 4.55252 3.95753 4.34617 4.02425C4.13981 4.09098 4 4.28313 4 4.5H4.5ZM7.5 14C3.91015 14 1 11.0899 1 7.5H0C0 11.6421 3.35786 15 7.5 15V14ZM14 7.5C14 11.0899 11.0899 14 7.5 14V15C11.6421 15 15 11.6421 15 7.5H14ZM7.5 1C11.0899 1 14 3.91015 14 7.5H15C15 3.35786 11.6421 0 7.5 0V1ZM7.5 0C3.35786 0 0 3.35786 0 7.5H1C1 3.91015 3.91015 1 7.5 1V0ZM5 12V4.5H4V12H5ZM4.09466 4.79275L10.5947 13.7927L11.4053 13.2073L4.90534 4.20725L4.09466 4.79275ZM10 4V10H11V4H10Z" fill="black"/>
</svg>

<svg viewBox="0 0 15 15" xmlns="http://www.w3.org/2000/svg"><path d="M4.5 4.5l.4-.3c-.13-.18-.36-.25-.56-.19 -.21.06-.35.25-.35.47h.5Zm3 9.5C3.91 14 1 11.08 1 7.5H0C0 11.64 3.35 15 7.5 15v-1ZM14 7.5c0 3.58-2.92 6.5-6.5 6.5v1c4.14 0 7.5-3.36 7.5-7.5h-1ZM7.5 1C11.08 1 14 3.91 14 7.5h1C15 3.35 11.64 0 7.5 0v1Zm0-1C3.35 0 0 3.35 0 7.5h1C1 3.91 3.91 1 7.5 1V0ZM5 12V4.5H4V12h1Zm-.91-7.21l6.5 8.99 .81-.59 -6.5-9.01 -.82.58Zm5.9-.8v6h1v-6h-1Z"/></svg>
